client/media/icons/_03_arrowright2.svg

<?xml version="1.0" encoding="UTF-8" standalone="no"?><!DOCTYPE svg PUBLIC "-//W3C//DTD SVG 1.1//EN" "http://www.w3.org/Graphics/SVG/1.1/DTD/svg11.dtd"><svg width="100%" height="100%" viewBox="0 0 48 48" version="1.1" xmlns="http://www.w3.org/2000/svg" xmlns:xlink="http://www.w3.org/1999/xlink" xml:space="preserve" xmlns:serif="http://www.serif.com/" style="fill-rule:evenodd;clip-rule:evenodd;stroke-linejoin:round;stroke-miterlimit:2;"><path d="M13.301,43.163c-0.533,-0.567 -0.808,-1.233 -0.825,-2c-0.016,-0.767 0.259,-1.433 0.825,-2l15.15,-15.15l-15.15,-15.15c-0.533,-0.533 -0.816,-1.192 -0.85,-1.975c-0.033,-0.783 0.234,-1.458 0.8,-2.025c0.534,-0.567 1.2,-0.858 2,-0.875c0.8,-0.017 1.467,0.258 2,0.825l17.6,17.55c0.234,0.233 0.409,0.492 0.525,0.775c0.117,0.283 0.175,0.575 0.175,0.875c0,0.3 -0.058,0.592 -0.175,0.875c-0.116,0.283 -0.291,0.542 -0.525,0.775l-17.55,17.55c-0.533,0.533 -1.191,0.8 -1.975,0.8c-0.783,-0 -1.458,-0.283 -2.025,-0.85Z" style="fill-rule:nonzero;"/></svg>

<?xml version="1.0" encoding="UTF-8" standalone="no"?>
<!DOCTYPE svg PUBLIC "-//W3C//DTD SVG 1.1//EN" "http://www.w3.org/Graphics/SVG/1.1/DTD/svg11.dtd">
<svg width="100%" height="100%" viewBox="0 0 40 40" version="1.1" xmlns="http://www.w3.org/2000/svg" xmlns:xlink="http://www.w3.org/1999/xlink" xml:space="preserve" xmlns:serif="http://www.serif.com/" style="fill-rule:evenodd;clip-rule:evenodd;stroke-linejoin:round;stroke-miterlimit:2;">
    <g transform="matrix(1.21144,0,0,0.999357,-9.07403,-3.99744)">
        <path d="M13.301,43.163C12.768,42.596 12.493,41.93 12.476,41.163C12.46,40.396 12.735,39.73 13.301,39.163L28.451,24.013L13.301,8.863C12.768,8.33 12.485,7.671 12.451,6.888C12.418,6.105 12.685,5.43 13.251,4.863C13.785,4.296 14.451,4.005 15.251,3.988C16.051,3.971 16.718,4.246 17.251,4.813L34.851,22.363C35.085,22.596 35.26,22.855 35.376,23.138C35.493,23.421 35.551,23.713 35.551,24.013C35.551,24.313 35.493,24.605 35.376,24.888C35.26,25.171 35.085,25.43 34.851,25.663L17.301,43.213C16.768,43.746 16.11,44.013 15.326,44.013C14.543,44.013 13.868,43.73 13.301,43.163Z" style="fill-rule:nonzero;"/>
    </g>
</svg>
